X:1
T:Title
%%score { 1 | ( 2 3 ) }
L:1/8
M:6/8
K:Bb
V:1 treble nm="Grand Piano"
V:2 bass 
V:3 bass 
V:1
 z3 z2[Q:1/4=100] d | [Fd]2 d d2 c | B2 [FA] [B,EG]2 [C=EB] | [CFA]3 [CGB]3 | [CAc]3- [CAc]2 [Fe] | %5
 [Fd]2 d d2 c | B2 [FA] [B,EG]2 [B,EG] | [B,DF]3 [F,A,Ec]3 | [B,DB]3- [B,DB]2 B | [CA]2 c c2 d | %10
 [Ec]2 [DB] [CA]2 [CFA] | [C=EG]3 [CGB]3 | [CFA]3- [CFA]2 [A,F] | [Fd]2 d d2 c | B2 [FA] G2 G | %15
 F3 c3 |[M:5/8] [DB]-[DB]- [DB]3 |[M:1/8] [DB] |[M:3/4] c2 =B c2 d | c2 B A2 A | [=EB]3 [Gc]3 | %21
 A4- AF | [Fd]2 [Ec] [Ge]2 [Fd] |[M:7/8] c2 B G3 G |[M:3/4] F3 c3 |[M:5/8] [DB]-[DB]- [DB]3 |] %26
V:2
 z3 z2 F | B,,2[K:treble] [F,F] [B,F]2[K:bass] [F,A,E] | .[G,D]3 z3 | F,3 F,3 | F,3- F,2 [F,A,] | %5
 B,,2[K:treble] [F,F] [B,F]2[K:bass] [F,A,E] | .[G,D]3 z3 | F,3 F,,3 | B,,3- B,,2 D | %9
 [F,,F,]2 [F,A,E] [F,A,E]2 F | F,,2 F, F,2 F, | C,3 C,3 | F,3- F,2 F, | %13
 B,,2[K:treble] [F,F] [B,F]2[K:bass] [F,A,E] | .[G,D]3 z3 | [F,B,D]3 [F,,F,A,E]3 | %16
[M:5/8] [B,,B,]-[B,,B,]- [B,,B,]3 |[M:1/8] [B,,B,] |[M:3/4] [F,A,E]2 [F,_A,D] [F,=A,E]2 [F,A,F] | %19
 [F,A,E]2 [F,B,D] [F,CF]2 [F,CF] | [C,C]3 [=E,C]3 | [F,CF]4- [F,CF][F,A,] | %22
 [B,,B,]2 [B,,B,] [B,,B,]2 [B,,B,] |[M:7/8] [E,G,E]2 [E,G,E] [E,B,E]3 [E,B,E] | %24
[M:3/4] [F,B,D]3 [F,,F,A,E]3 |[M:5/8] [B,,B,]-[B,,B,]- [B,,B,]3 |] %26
V:3
 x6 | x2[K:treble] x3[K:bass] x | B,2- [D,B,] E,2 C, | x6 | x6 | x2[K:treble] x3[K:bass] x | %6
 B,2- [D,B,] E,2 E, | x6 | x6 | x6 | x6 | x6 | x6 | x2[K:treble] x3[K:bass] x | %14
 B,2- [D,B,] [E,B,E]2 [E,B,E] | x6 |[M:5/8] x5 |[M:1/8] x |[M:3/4] x6 | x6 | x6 | x6 | x6 | %23
[M:7/8] x7 |[M:3/4] x6 |[M:5/8] x5 |] %26

